X:1
T:- # -
T:God be in my Head
T:for Jenny Dennis
T:Hackett
T:Old English Prayer
%%score [ 1 2 3 4 ]
L:1/8
M:4/4
K:Eb
V:1 treble nm="Soprano" snm="S."
V:2 treble nm="Alto" snm="A."
V:3 treble-8 nm="Tenor" snm="T."
V:4 bass nm="Bass" snm="B."
V:1
 z8 | z2!mf! B2 c2 e2 | f2 e2 (3(c2 B2 A2) | B4 z4 | z4 z2!mp! c2 | d2 e2 (3(c2 B2 A2) | G4 z4 | %7
w: |and in my|un- der- stand * *|ing,|and|in my look * *|ing,|
 z4 z2 G2 | A2 G2!<(! (3(F2 G2!<)! A2) |"^," B4"^Solo"!mf! f3 e | (3(B2 G2) c2 B4 | %11
w: and|in my speak * *|ing, God be|in * my heart,|
 z2"^Tutti"!>(! c2 B2 A2!>)! | G4"^," F4 |!p!"^meno mosso" E3 F (3(A2 G2) E2 | =B4 z4 | %15
w: and in my|think- ing,|God be at * mine|end,|
!>(! =B6 B2!>)! | B4 G4 | F8 | G8 |] %19
w: and at|my de-|part-|ing.|
V:2
 z8 | z2!mf! B2 A2 B2 | A2 B2 A4 | F4 z4 | z4 z2!mp! G2 | B2 G2 (A2 F2) |"^," D4"^Solo"!mp! A3 G | %7
w: |and in my|un- der- stand-|ing,|and|in my look *|ing, God be|
!<(! (3(F2 G2)!<)! A2 (B2!mp!"^Tutti" E2) | F2 E2!<(! (F2!<)! E2) | F4 z4 | z8 | %11
w: in * my mouth and|in my speak *|ing,||
 z2!mf!!>(! A2 G2 F2!>)! | E4"^," D4 |!p! E3 F (3(A2 G2) E2 | =E4 z4 |!>(! =B,6 B,2!>)! | B,4 E4 | %17
w: and in my|think- ing,|God be at * mine|end,|and at|my de-|
 (E4 D4) | E8 |] %19
w: part *|ing.|
V:3
 z8 | z2!mf! B2 c2 B2 | c2 e2 e4 | d4!mp!"^Solo" G3 =A | (3(c2 B2) G2 (e2"^Tutti" e2) | %5
w: |and in my|un- der- stand-|ing, God be|in * mine eyes and|
 g2 e2 (f2 c2) | (c2 B2) z4 | z4 z2 c2 | c2 c2 c4 | (e2 d2) z4 | z8 | z2!mf!!>(! e2 e2 f2!>)! | %12
w: in my look *|ing, *|and|in my speak-|king *||and in my|
 B4"^," B4 |!p! E3 F (3(A2 G2) E2 | A4 z4 |!>(! =B6 B2!>)! | B4 B4 | B8 | B8 |] %19
w: think- ing,|God be at * mine|end,|and at|my de-|part-|ing.|
V:4
!mf!"^Solo" E,3 F, (3(A,2 G,2) E,2 | (B,2"^Tutti" B,2) A,2 G,2 | F,2 G,2 (A,2 C2) | B,4 z4 | %4
w: God be in * my|head and in my|un- der- stand *|ing,|
 z4 z2!mp! C2 | G,2 C2 F,4 | G,4 z4 | z4 z2 C,2 | F,2 C,2!<(! (F,2!<)! C2) | B,4 z4 | z8 | %11
w: and|in my look-|ing,|and|in my speak *|ing.||
 z2!mf!!>(! A,2 B,2 C2!>)! | B,4"^," B,4 |!p! E,3 F, (3(A,2 G,2) E,2 | A,,4 z4 | z8 | z4!pp! E,4 | %17
w: and in my|think- ing,|God be at * mine|end,||de-|
 B,,8 | E,8 |] %19
w: part-|ing.|

